src/components/Icon/assets/check-circle-filled.svg

<svg width="24" height="24" viewBox="0 0 24 24" fill="none" xmlns="http://www.w3.org/2000/svg">
<path fill-rule="evenodd" clip-rule="evenodd" d="M10.8092 16.4044L6.65524 12.4164L8.04024 10.9734L10.8242 13.6464L16.4752 8.3374L17.8442 9.7944L10.8092 16.4044ZM12.0002 2.0004C6.48624 2.0004 2.00024 6.4864 2.00024 12.0004C2.00024 17.5134 6.48624 22.0004 12.0002 22.0004C17.5142 22.0004 22.0002 17.5134 22.0002 12.0004C22.0002 6.4864 17.5142 2.0004 12.0002 2.0004V2.0004Z" fill="#65676A"/>
</svg>

<svg xmlns="http://www.w3.org/2000/svg" width="24" height="24" viewBox="0 0 24 24">
    <path fill="#65676A" fill-rule="evenodd" d="M10.81 16.404l-4.155-3.988 1.385-1.443 2.784 2.673 5.651-5.309 1.37 1.457-7.036 6.61zM12 2C6.486 2 2 6.486 2 12c0 5.513 4.486 10 10 10s10-4.487 10-10c0-5.514-4.486-10-10-10z"/>
</svg>
